tools/download-figma-icons/icons/solid/gateway.svg

<svg width="24" height="24" viewBox="0 0 24 24" fill="none" xmlns="http://www.w3.org/2000/svg">
<path fill-rule="evenodd" clip-rule="evenodd" d="M6.75 12C6.9465 12 7.1415 11.9228 7.28925 11.7713C7.57725 11.4735 7.569 10.9988 7.27125 10.7108C5.96775 9.4515 5.25 7.7775 5.25 6C5.25 4.2225 5.96775 2.5485 7.27125 1.28925C7.569 1.00125 7.57725 0.526504 7.28925 0.228754C7.002 -0.0697457 6.52725 -0.0764957 6.22875 0.210754C4.6305 1.75575 3.75 3.8115 3.75 6C3.75 8.1885 4.6305 10.2443 6.22875 11.7893C6.37425 11.9295 6.5625 12 6.75 12ZM8.48879 9.92358C8.63279 10.0586 8.81654 10.1253 9.00029 10.1253C9.20054 10.1253 9.40079 10.0451 9.54854 9.88608C9.83129 9.58308 9.81479 9.10833 9.51104 8.82633C8.69729 8.06808 8.25029 7.06383 8.25029 6.00033C8.25029 4.93608 8.69729 3.93183 9.51104 3.17358C9.81479 2.89158 9.83129 2.41683 9.54854 2.11383C9.26579 1.80933 8.79104 1.79433 8.48879 2.07633C7.36754 3.12183 6.75029 4.51458 6.75029 6.00033C6.75029 7.48533 7.36754 8.87808 8.48879 9.92358ZM20.25 21C19.8375 21 19.5 20.6625 19.5 20.25C19.5 19.8375 19.8375 19.5 20.25 19.5C20.6625 19.5 21 19.8375 21 20.25C21 20.6625 20.6625 21 20.25 21ZM18 21C17.5875 21 17.25 20.6625 17.25 20.25C17.25 19.8375 17.5875 19.5 18 19.5C18.4125 19.5 18.75 19.8375 18.75 20.25C18.75 20.6625 18.4125 21 18 21ZM15.75 21C15.3375 21 15 20.6625 15 20.25C15 19.8375 15.3375 19.5 15.75 19.5C16.1625 19.5 16.5 19.8375 16.5 20.25C16.5 20.6625 16.1625 21 15.75 21ZM12.015 6.75001C12.0112 6.75001 12.0094 6.74813 12.0075 6.74626C12.0056 6.74438 12.0037 6.74251 12 6.74251C11.9963 6.74251 11.9944 6.74438 11.9925 6.74626C11.9906 6.74813 11.9888 6.75001 11.985 6.75001C11.58 6.73501 11.25 6.40501 11.25 6.00001C11.25 5.58751 11.5875 5.25001 12 5.25001C12.4125 5.25001 12.75 5.58751 12.75 6.00001C12.75 6.40501 12.42 6.73501 12.015 6.75001ZM4.5 20.25C3.675 20.25 3 19.575 3 18.75C3 17.925 3.675 17.25 4.5 17.25C5.325 17.25 6 17.925 6 18.75C6 19.575 5.325 20.25 4.5 20.25ZM22.5525 15H12.75V8.11501C13.62 7.80001 14.25 6.97501 14.25 6.00001C14.25 4.76251 13.2375 3.75001 12 3.75001C10.7625 3.75001 9.75 4.76251 9.75 6.00001C9.75 6.97501 10.38 7.80001 11.25 8.11501V15H1.4475C0.6525 15 0 15.6525 0 16.4475V21.0525C0 21.8475 0.6525 22.5 1.4475 22.5H2.25V23.25C2.25 23.6625 2.5875 24 3 24C3.4125 24 3.75 23.6625 3.75 23.25V22.5H20.25V23.25C20.25 23.6625 20.5875 24 21 24C21.4125 24 21.75 23.6625 21.75 23.25V22.5H22.5525C23.3475 22.5 24 21.8475 24 21.0525V16.4475C24 15.6525 23.3475 15 22.5525 15ZM14.9997 10.1247C14.7995 10.1247 14.5992 10.0452 14.4515 9.88624C14.1687 9.58324 14.186 9.10849 14.489 8.82649C15.3027 8.06824 15.7497 7.06399 15.7497 5.99974C15.7497 4.93549 15.3027 3.93199 14.489 3.17374C14.186 2.89174 14.1687 2.41699 14.4515 2.11399C14.735 1.81024 15.2097 1.79449 15.5112 2.07649C16.6325 3.12124 17.2497 4.51474 17.2497 5.99974C17.2497 7.48549 16.6325 8.87824 15.5112 9.92374C15.3672 10.058 15.1835 10.1247 14.9997 10.1247ZM16.7287 10.7107C18.0322 9.4515 18.75 7.7775 18.75 6C18.75 4.2225 18.0322 2.5485 16.7287 1.28925C16.431 1.00125 16.4227 0.526496 16.7107 0.228746C16.9995 -0.0682542 17.4735 -0.0765042 17.7712 0.210746C19.3695 1.75575 20.25 3.8115 20.25 6C20.25 8.1885 19.3695 10.2442 17.7712 11.7892C17.6257 11.9295 17.4375 12 17.25 12C17.0535 12 16.8585 11.9235 16.7107 11.7712C16.4227 11.4735 16.431 10.9987 16.7287 10.7107Z" fill="black"/>
</svg>

<svg width="24" height="24" viewBox="0 0 24 24" fill="none" xmlns="http://www.w3.org/2000/svg"><path fill-rule="evenodd" clip-rule="evenodd" d="M6.75 12a.751.751 0 0 0 .521-1.29C5.968 9.452 5.25 7.778 5.25 6c0-1.777.718-3.451 2.021-4.71A.75.75 0 1 0 6.23.21C4.63 1.757 3.75 3.813 3.75 6s.88 4.244 2.479 5.79a.75.75 0 0 0 .521.21Zm1.739-2.076a.745.745 0 0 0 1.06-.038.749.749 0 0 0-.038-1.06C8.697 8.068 8.251 7.064 8.251 6s.446-2.068 1.26-2.826a.749.749 0 1 0-1.022-1.098C7.368 3.122 6.75 4.515 6.75 6c0 1.485.618 2.878 1.739 3.924ZM20.25 21a.752.752 0 0 1-.75-.75c0-.413.337-.75.75-.75s.75.337.75.75-.337.75-.75.75ZM18 21a.752.752 0 0 1-.75-.75c0-.413.337-.75.75-.75s.75.337.75.75-.337.75-.75.75Zm-2.25 0a.752.752 0 0 1-.75-.75c0-.413.338-.75.75-.75.413 0 .75.337.75.75s-.337.75-.75.75ZM12.015 6.75c-.004 0-.006-.002-.008-.004-.001-.002-.003-.003-.007-.003s-.006.001-.008.003c-.001.002-.003.004-.007.004A.76.76 0 0 1 11.25 6c0-.412.338-.75.75-.75s.75.338.75.75a.76.76 0 0 1-.735.75ZM4.5 20.25c-.825 0-1.5-.675-1.5-1.5s.675-1.5 1.5-1.5 1.5.675 1.5 1.5-.675 1.5-1.5 1.5ZM22.552 15H12.75V8.115c.87-.315 1.5-1.14 1.5-2.115A2.257 2.257 0 0 0 12 3.75 2.257 2.257 0 0 0 9.75 6c0 .975.63 1.8 1.5 2.115V15H1.447C.652 15 0 15.652 0 16.448v4.604c0 .796.652 1.448 1.448 1.448h.802v.75c0 .413.337.75.75.75s.75-.337.75-.75v-.75h16.5v.75c0 .413.337.75.75.75s.75-.337.75-.75v-.75h.802c.796 0 1.448-.652 1.448-1.448v-4.604c0-.796-.652-1.448-1.448-1.448ZM15 10.125a.75.75 0 0 1-.51-1.298c.813-.759 1.26-1.763 1.26-2.827 0-1.065-.447-2.068-1.261-2.826a.75.75 0 1 1 1.022-1.098C16.633 3.121 17.25 4.515 17.25 6c0 1.485-.617 2.878-1.739 3.924a.748.748 0 0 1-.511.2Zm1.729.586C18.032 9.45 18.75 7.777 18.75 6c0-1.777-.718-3.451-2.021-4.71A.75.75 0 0 1 17.77.21c1.6 1.547 2.48 3.603 2.48 5.79s-.88 4.244-2.479 5.79a.75.75 0 1 1-1.042-1.08Z" fill="currentColor"/></svg>
